public/images/pages/stickers/line-store.svg

<svg fill="none" height="18" viewBox="0 0 71 18" width="71" xmlns="http://www.w3.org/2000/svg"><rect fill="#313131" height="18" rx="2" width="71"/><g fill="#fff"><path d="m10.0996 11.8232h3.1104v1.1768h-4.57523v-7.10938h1.46483z"/><path d="m15.6123 13h-1.4648v-7.10938h1.4648z"/><path d="m22.7559 13h-1.4649l-2.8515-4.67773v4.67773h-1.4649v-7.10938h1.4649l2.8564 4.68748v-4.68748h1.46z"/><path d="m28.3125 9.91895h-2.8125v1.90425h3.3008v1.1768h-4.7656v-7.10938h4.7558v1.18653h-3.291v1.69433h2.8125z"/><path d="m35.8369 11.1348c0-.2767-.0976-.4883-.293-.6348-.1953-.1497-.5468-.306-1.0546-.4688-.5079-.16597-.9099-.32873-1.2061-.48823-.8073-.4362-1.2109-1.02376-1.2109-1.7627 0-.38411.1074-.72591.3222-1.02539.2181-.30273.529-.53873.9326-.708.4069-.16928.8627-.25391 1.3672-.25391.5078 0 .9603.09277 1.3575.27832.3971.18229.7047.44108.9228.77637.2214.33528.332.71614.332 1.14257h-1.4648c0-.32552-.1025-.5778-.3076-.75683-.2051-.18229-.4932-.27344-.8643-.27344-.3581 0-.6364.0765-.8349.22949-.1986.14974-.2979.34831-.2979.59571 0 .23112.1156.4248.3467.58105.2344.15625.5778.30274 1.0303.43945.8333.25066 1.4404.56153 1.8213.93262.3808.37112.5712.83332.5712 1.38672 0 .6152-.2327 1.0986-.6982 1.4502-.4655.3483-1.0921.5225-1.8799.5225-.5469 0-1.0449-.0993-1.4941-.2979-.4492-.2018-.7927-.4769-1.0303-.8252-.2344-.3483-.3516-.7519-.3516-1.2109h1.4698c0 .7845.4687 1.1767 1.4062 1.1767.3483 0 .6201-.07.8154-.2099.1954-.1433.293-.3418.293-.5957z"/><path d="m43.6543 7.07715h-2.1777v5.92285h-1.4649v-5.92285h-2.1484v-1.18653h5.791z"/><path d="m50.1973 9.60645c0 .69985-.1237 1.31345-.3711 1.84085-.2474.5273-.6022.9342-1.0645 1.2207-.459.2864-.9863.4297-1.582.4297-.5892 0-1.1149-.1416-1.5772-.4248-.4622-.2833-.8203-.6869-1.0742-1.211-.2539-.5273-.3825-1.1328-.3857-1.81639v-.35156c0-.69987.1253-1.31511.376-1.84571.2539-.53385.6103-.94238 1.0693-1.22558.4622-.28646.9896-.42969 1.582-.42969.5925 0 1.1182.14323 1.5772.42969.4622.2832.8187.69173 1.0693 1.22558.2539.5306.3809 1.14421.3809 1.84082zm-1.4844-.32227c0-.74544-.1335-1.31185-.4004-1.69922s-.6478-.58105-1.1426-.58105c-.4915 0-.8707.19205-1.1377.57617-.2669.38086-.402.94075-.4052 1.67969v.34668c0 .72595.1334 1.28905.4003 1.68945.267.4004.6511.6006 1.1524.6006.4915 0 .8691-.1921 1.1328-.5762.2637-.3874.3971-.9505.4004-1.68944z"/><path d="m53.8936 10.3975h-1.167v2.6025h-1.4649v-7.10938h2.6416c.8399 0 1.4877.18718 1.9434.56153s.6836.90332.6836 1.58691c0 .48503-.1058.8903-.3174 1.21582-.2083.32227-.5257.57943-.9522.77152l1.5381 2.9052v.0684h-1.5722zm-1.167-1.18656h1.1816c.3678 0 .6527-.09278.8545-.27832.2018-.1888.3027-.44759.3027-.77637 0-.33529-.096-.59896-.2881-.79102-.1888-.19205-.4801-.28808-.874-.28808h-1.1767z"/><path d="m61.9258 9.91895h-2.8125v1.90425h3.3008v1.1768h-4.7657v-7.10938h4.7559v1.18653h-3.291v1.69433h2.8125z"/></g><path d="m10.0996 11.8232h3.1104v1.1768h-4.57523v-7.10938h1.46483z" fill="#00b800"/><path d="m15.6123 13h-1.4648v-7.10938h1.4648z" fill="#00b800"/><path d="m22.7559 13h-1.4649l-2.8515-4.67773v4.67773h-1.4649v-7.10938h1.4649l2.8564 4.68748v-4.68748h1.46z" fill="#00b800"/><path d="m28.3125 9.91895h-2.8125v1.90425h3.3008v1.1768h-4.7656v-7.10938h4.7558v1.18653h-3.291v1.69433h2.8125z" fill="#00b800"/></svg>

<svg width="71" height="18" viewBox="0 0 71 18" fill="none" xmlns="http://www.w3.org/2000/svg">
<rect width="71" height="18" rx="2" fill="#313131"/>
<path d="M10.0996 11.8232H13.21V13H8.63477V5.89062H10.0996V11.8232Z" fill="white"/>
<path d="M15.6123 13H14.1475V5.89062H15.6123V13Z" fill="white"/>
<path d="M22.7559 13H21.291L18.4395 8.32227V13H16.9746V5.89062H18.4395L21.2959 10.5781V5.89062H22.7559V13Z" fill="white"/>
<path d="M28.3125 9.91895H25.5V11.8232H28.8008V13H24.0352V5.89062H28.791V7.07715H25.5V8.77148H28.3125V9.91895Z" fill="white"/>
<path d="M35.8369 11.1348C35.8369 10.8581 35.7393 10.6465 35.5439 10.5C35.3486 10.3503 34.9971 10.194 34.4893 10.0312C33.9814 9.86523 33.5794 9.70247 33.2832 9.54297C32.4759 9.10677 32.0723 8.51921 32.0723 7.78027C32.0723 7.39616 32.1797 7.05436 32.3945 6.75488C32.6126 6.45215 32.9235 6.21615 33.3271 6.04688C33.734 5.8776 34.1898 5.79297 34.6943 5.79297C35.2021 5.79297 35.6546 5.88574 36.0518 6.07129C36.4489 6.25358 36.7565 6.51237 36.9746 6.84766C37.196 7.18294 37.3066 7.5638 37.3066 7.99023H35.8418C35.8418 7.66471 35.7393 7.41243 35.5342 7.2334C35.3291 7.05111 35.041 6.95996 34.6699 6.95996C34.3118 6.95996 34.0335 7.03646 33.835 7.18945C33.6364 7.33919 33.5371 7.53776 33.5371 7.78516C33.5371 8.01628 33.6527 8.20996 33.8838 8.36621C34.1182 8.52246 34.4616 8.66895 34.9141 8.80566C35.7474 9.05632 36.3545 9.36719 36.7354 9.73828C37.1162 10.1094 37.3066 10.5716 37.3066 11.125C37.3066 11.7402 37.0739 12.2236 36.6084 12.5752C36.1429 12.9235 35.5163 13.0977 34.7285 13.0977C34.1816 13.0977 33.6836 12.9984 33.2344 12.7998C32.7852 12.598 32.4417 12.3229 32.2041 11.9746C31.9697 11.6263 31.8525 11.2227 31.8525 10.7637H33.3223C33.3223 11.5482 33.791 11.9404 34.7285 11.9404C35.0768 11.9404 35.3486 11.8704 35.5439 11.7305C35.7393 11.5872 35.8369 11.3887 35.8369 11.1348Z" fill="white"/>
<path d="M43.6543 7.07715H41.4766V13H40.0117V7.07715H37.8633V5.89062H43.6543V7.07715Z" fill="white"/>
<path d="M50.1973 9.60645C50.1973 10.3063 50.0736 10.9199 49.8262 11.4473C49.5788 11.9746 49.224 12.3815 48.7617 12.668C48.3027 12.9544 47.7754 13.0977 47.1797 13.0977C46.5905 13.0977 46.0648 12.9561 45.6025 12.6729C45.1403 12.3896 44.7822 11.986 44.5283 11.4619C44.2744 10.9346 44.1458 10.3291 44.1426 9.64551V9.29395C44.1426 8.59408 44.2679 7.97884 44.5186 7.44824C44.7725 6.91439 45.1289 6.50586 45.5879 6.22266C46.0501 5.9362 46.5775 5.79297 47.1699 5.79297C47.7624 5.79297 48.2881 5.9362 48.7471 6.22266C49.2093 6.50586 49.5658 6.91439 49.8164 7.44824C50.0703 7.97884 50.1973 8.59245 50.1973 9.28906V9.60645ZM48.7129 9.28418C48.7129 8.53874 48.5794 7.97233 48.3125 7.58496C48.0456 7.19759 47.6647 7.00391 47.1699 7.00391C46.6784 7.00391 46.2992 7.19596 46.0322 7.58008C45.7653 7.96094 45.6302 8.52083 45.627 9.25977V9.60645C45.627 10.3324 45.7604 10.8955 46.0273 11.2959C46.2943 11.6963 46.6784 11.8965 47.1797 11.8965C47.6712 11.8965 48.0488 11.7044 48.3125 11.3203C48.5762 10.9329 48.7096 10.3698 48.7129 9.63086V9.28418Z" fill="white"/>
<path d="M53.8936 10.3975H52.7266V13H51.2617V5.89062H53.9033C54.7432 5.89062 55.391 6.0778 55.8467 6.45215C56.3024 6.8265 56.5303 7.35547 56.5303 8.03906C56.5303 8.52409 56.4245 8.92936 56.2129 9.25488C56.0046 9.57715 55.6872 9.83431 55.2607 10.0264L56.7988 12.9316V13H55.2266L53.8936 10.3975ZM52.7266 9.21094H53.9082C54.276 9.21094 54.5609 9.11816 54.7627 8.93262C54.9645 8.74382 55.0654 8.48503 55.0654 8.15625C55.0654 7.82096 54.9694 7.55729 54.7773 7.36523C54.5885 7.17318 54.2972 7.07715 53.9033 7.07715H52.7266V9.21094Z" fill="white"/>
<path d="M61.9258 9.91895H59.1133V11.8232H62.4141V13H57.6484V5.89062H62.4043V7.07715H59.1133V8.77148H61.9258V9.91895Z" fill="white"/>
<path d="M10.0996 11.8232H13.21V13H8.63477V5.89062H10.0996V11.8232Z" fill="#00B800"/>
<path d="M15.6123 13H14.1475V5.89062H15.6123V13Z" fill="#00B800"/>
<path d="M22.7559 13H21.291L18.4395 8.32227V13H16.9746V5.89062H18.4395L21.2959 10.5781V5.89062H22.7559V13Z" fill="#00B800"/>
<path d="M28.3125 9.91895H25.5V11.8232H28.8008V13H24.0352V5.89062H28.791V7.07715H25.5V8.77148H28.3125V9.91895Z" fill="#00B800"/>
</svg>
